ui/StatusQ/src/assets/img/icons/generate_account.svg

<svg fill="none" height="20" viewBox="0 0 20 20" width="20" xmlns="http://www.w3.org/2000/svg"><path d="m9.99985 4.60004c.33135 0 .60005.26863.60005.6v3.8c0 .22091.179.4.4.4h3.8c.3313 0 .6.26863.6.59996 0 .3314-.2687.6-.6.6h-3.8c-.221 0-.4.1791-.4.4v3.8c0 .3314-.2687.6-.60005.6-.33137 0-.6-.2686-.6-.6v-3.8c0-.2209-.17908-.4-.4-.4h-3.8c-.33137 0-.6-.2686-.6-.6 0-.33133.26863-.59996.6-.59996h3.8c.22092 0 .4-.17909.4-.4v-3.8c0-.33137.26863-.6.6-.6z" fill="#4360df"/></svg>

<svg width="20" height="20" viewBox="0 0 20 20" fill="none" xmlns="http://www.w3.org/2000/svg">
<path d="M9.99985 4.60004C10.3312 4.60004 10.5999 4.86867 10.5999 5.20004V9.00004C10.5999 9.22095 10.7789 9.40004 10.9999 9.40004H14.7999C15.1312 9.40004 15.3999 9.66867 15.3999 10C15.3999 10.3314 15.1312 10.6 14.7999 10.6H10.9999C10.7789 10.6 10.5999 10.7791 10.5999 11V14.8C10.5999 15.1314 10.3312 15.4 9.99985 15.4C9.66848 15.4 9.39985 15.1314 9.39985 14.8V11C9.39985 10.7791 9.22077 10.6 8.99985 10.6H5.19985C4.86848 10.6 4.59985 10.3314 4.59985 10C4.59985 9.66867 4.86848 9.40004 5.19985 9.40004H8.99985C9.22077 9.40004 9.39985 9.22095 9.39985 9.00004V5.20004C9.39985 4.86867 9.66848 4.60004 9.99985 4.60004Z" fill="#4360DF"/>
</svg>
